X: 27319
T: Mist Covered Mountain, The
R: jig
M: 6/8
K: Adorian
A3 A3|e2 e e>dB|G3 G3|B>AB A2B|
c3 d3|e>fg B>AG|A>Be d>cB|A3 A3:|
e3 e3|d>eg e>dB|G2 G3|B>AB A2B|
c3 d3|e>fg B>AG|A>Be d>cB|A3 A3:|

